symbols/web/single_bed/materialsymbolssharp/single_bed_wght100grad200_24px.svg

<svg xmlns="http://www.w3.org/2000/svg" height="24" width="24"><path d="M6.45 18.75h-.7L5.3 16.7H4.25v-5.75h2.025v-4.4h11.45v4.4h2.025v5.75h-1.025l-.475 2.05h-.7l-.475-2.05H6.925Zm6.225-7.8h3.7V7.9h-3.7Zm-5.05 0h3.7V7.9h-3.7ZM5.6 15.35h12.8V12.3H5.6Zm12.8 0H5.6Z"/></svg>

<svg xmlns="http://www.w3.org/2000/svg" height="24" width="24"><path d="M6.45 18.75H5.75L5.3 16.7H4.25V10.95H6.275V6.55H17.725V10.95H19.75V16.7H18.725L18.25 18.75H17.55L17.075 16.7H6.925ZM12.675 10.95H16.375V7.9H12.675ZM7.625 10.95H11.325V7.9H7.625ZM5.6 15.35H18.4V12.3H5.6ZM18.4 15.35H5.6Z"/></svg>
